boxicons/svg/regular/bx-id-card.svg

<svg xmlns="http://www.w3.org/2000/svg" width="24" height="24" viewBox="0 0 24 24"><path d="M9.715 12c1.151 0 2-.849 2-2s-.849-2-2-2-2 .849-2 2 .848 2 2 2z"/><path d="M20 4H4c-1.103 0-2 .841-2 1.875v12.25C2 19.159 2.897 20 4 20h16c1.103 0 2-.841 2-1.875V5.875C22 4.841 21.103 4 20 4zm0 14-16-.011V6l16 .011V18z"/><path d="M14 9h4v2h-4zm1 4h3v2h-3zm-1.57 2.536c0-1.374-1.676-2.786-3.715-2.786S6 14.162 6 15.536V16h7.43v-.464z"/></svg>

<svg xmlns="http://www.w3.org/2000/svg" width="24" height="24" viewBox="0 0 24 24"><path d="M9.715,12c1.151,0,2-0.849,2-2s-0.849-2-2-2s-2,0.849-2,2S8.563,12,9.715,12z"/><path d="M20,4H4C2.897,4,2,4.841,2,5.875v12.25C2,19.159,2.897,20,4,20h16c1.103,0,2-0.841,2-1.875V5.875C22,4.841,21.103,4,20,4z M20,18L4,17.989V6l16,0.011V18z"/><path d="M14 9H18V11H14zM15 13H18V15H15zM13.43 15.536c0-1.374-1.676-2.786-3.715-2.786S6 14.162 6 15.536V16h7.43V15.536z"/></svg>
